src/pos-icons/zodiac-capricorn.svg

<svg height="24" viewBox="0 0 24 24" width="24" xmlns="http://www.w3.org/2000/svg"><path d="m15 13c-.7 0-1.39.19-2 .55v-7.55a3 3 0 0 0 -3-3c-.75 0-1.45.29-2 .78-.55-.5-1.26-.78-2-.78v2a1 1 0 0 1 1 1v10h2v-10a1 1 0 0 1 1-1 1 1 0 0 1 1 1v11a2 2 0 0 1 -2 2v2c1.15 0 2.25-.5 3-1.38 1.45 1.67 3.97 1.85 5.64.38 1.67-1.42 1.86-3.95.4-5.62-.76-.88-1.87-1.38-3.04-1.38m0 6a2 2 0 0 1 -2-2 2 2 0 0 1 2-2 2 2 0 0 1 2 2 2 2 0 0 1 -2 2z"/></svg>

<?xml version="1.0" encoding="UTF-8"?><!DOCTYPE svg PUBLIC "-//W3C//DTD SVG 1.1//EN" "http://www.w3.org/Graphics/SVG/1.1/DTD/svg11.dtd"><svg xmlns="http://www.w3.org/2000/svg" xmlns:xlink="http://www.w3.org/1999/xlink" version="1.1" id="mdi-zodiac-capricorn" width="24" height="24" viewBox="0 0 24 24"><path d="M15,13C14.3,13 13.61,13.19 13,13.55V6A3,3 0 0,0 10,3C9.25,3 8.55,3.29 8,3.78C7.45,3.28 6.74,3 6,3V5A1,1 0 0,1 7,6V16H9V6A1,1 0 0,1 10,5A1,1 0 0,1 11,6V17A2,2 0 0,1 9,19V21C10.15,21 11.25,20.5 12,19.62C13.45,21.29 15.97,21.47 17.64,20C19.31,18.58 19.5,16.05 18.04,14.38C17.28,13.5 16.17,13 15,13M15,19A2,2 0 0,1 13,17A2,2 0 0,1 15,15A2,2 0 0,1 17,17A2,2 0 0,1 15,19Z" /></svg>
